X:4012
T:Dingle Regatta
R:Jig
C:Trad.
O:Ireland
M:6/8
Q:1/8=220
K:G
"G"d^cd e2d|BAB d2B|"D"A2A AGA|"G"B2A G2d|
"G"d^cd e2d|BAB d2B|"D"A2A ABA|"G"G3-G3:|
|:"D"d3 def|"G"g3 gfg|"D"a2a aga|"G"b2a g2e|
"D"d3 def|"G"g3 gfg|"D"a2g f2e|def "G"g3:|
|:"G"g3 d3|BdB G3|"D"FGA DEF|"G"G2B def|
"G"g3 d3|BdB G3|"D"FGA DEF|"G"G3-G3:|

